Simply-Black-Circles/scalable/apps/distributor-logo-linux-mint.svg

<svg xmlns="http://www.w3.org/2000/svg" width="48" height="48" viewBox="0 0 12.7 12.7"><path d="M6.34.08A6.27 6.27 0 0 0 .08 6.34a6.27 6.27 0 0 0 6.26 6.27 6.27 6.27 0 0 0 6.27-6.27A6.27 6.27 0 0 0 6.34.08zM6.33 1A5.39 5.39 0 0 1 11.7 6.4a5.39 5.39 0 0 1-5.38 5.39 5.39 5.39 0 0 1-5.4-5.4 5.39 5.39 0 0 1 5.4-5.38z" fill="#1a1a1a"/><path d="M2.13 3.4v1.98h.99v2.25c0 1.35 1.1 2.45 2.45 2.45H9.8V5.85c0-1.36-1.1-2.45-2.45-2.45zm2.22.99h.5v3.46c0 .27.22.5.5.5h2.22a.5.5 0 0 0 .5-.5V6c0-.2-.17-.37-.37-.37-.21 0-.38.18-.38.37v1.49h-.5V5.99c0-.2-.16-.37-.36-.37-.2 0-.37.18-.37.37v1.49h-.5V5.99c0-.47.39-.86.87-.86.24 0 .46.1.62.27a.83.83 0 0 1 .62-.27c.47 0 .86.4.86.86v1.86c0 .55-.44 1-.99 1H5.34a.99.99 0 0 1-.99-1z" opacity=".75" fill="green"/></svg>

<?xml version="1.0" encoding="UTF-8" standalone="no"?>
<svg
   xmlns:dc="http://purl.org/dc/elements/1.1/"
   xmlns:cc="http://creativecommons.org/ns#"
   xmlns:rdf="http://www.w3.org/1999/02/22-rdf-syntax-ns#"
   xmlns:svg="http://www.w3.org/2000/svg"
   xmlns="http://www.w3.org/2000/svg"
   xmlns:sodipodi="http://sodipodi.sourceforge.net/DTD/sodipodi-0.dtd"
   xmlns:inkscape="http://www.inkscape.org/namespaces/inkscape"
   width="48"
   height="48"
   viewBox="0 0 12.7 12.7"
   version="1.1"
   id="svg6"
   sodipodi:docname="distributor-logo-linux-mint.svg"
   inkscape:version="0.92.4 (5da689c313, 2019-01-14)">
  <metadata
     id="metadata12">
    <rdf:RDF>
      <cc:Work
         rdf:about="">
        <dc:format>image/svg+xml</dc:format>
        <dc:type
           rdf:resource="http://purl.org/dc/dcmitype/StillImage" />
        <dc:title></dc:title>
      </cc:Work>
    </rdf:RDF>
  </metadata>
  <defs
     id="defs10" />
  <sodipodi:namedview
     pagecolor="#ffffff"
     bordercolor="#666666"
     borderopacity="1"
     objecttolerance="10"
     gridtolerance="10"
     guidetolerance="10"
     inkscape:pageopacity="0"
     inkscape:pageshadow="2"
     inkscape:window-width="1087"
     inkscape:window-height="480"
     id="namedview8"
     showgrid="false"
     inkscape:zoom="4.9166667"
     inkscape:cx="2.1355932"
     inkscape:cy="24"
     inkscape:window-x="0"
     inkscape:window-y="25"
     inkscape:window-maximized="0"
     inkscape:current-layer="svg6" />
  <path
     d="M 6.34,0.08 A 6.27,6.27 0 0 0 0.08,6.34 6.27,6.27 0 0 0 6.34,12.61 6.27,6.27 0 0 0 12.61,6.34 6.27,6.27 0 0 0 6.34,0.08 Z M 6.33,1 a 5.39,5.39 0 0 1 5.37,5.4 5.39,5.39 0 0 1 -5.38,5.39 5.39,5.39 0 0 1 -5.4,-5.4 5.39,5.39 0 0 1 5.4,-5.38 z"
     id="path2"
     inkscape:connector-curvature="0"
     style="fill:#1a1a1a" />
  <path
     d="m 2.13,3.4 v 1.98 h 0.99 v 2.25 c 0,1.35 1.1,2.45 2.45,2.45 H 9.8 V 5.85 C 9.8,4.49 8.7,3.4 7.35,3.4 Z m 2.22,0.99 h 0.5 v 3.46 c 0,0.27 0.22,0.5 0.5,0.5 h 2.22 a 0.5,0.5 0 0 0 0.5,-0.5 V 6 C 8.07,5.8 7.9,5.63 7.7,5.63 7.49,5.63 7.32,5.81 7.32,6 V 7.49 H 6.82 V 5.99 C 6.82,5.79 6.66,5.62 6.46,5.62 6.26,5.62 6.09,5.8 6.09,5.99 V 7.48 H 5.59 V 5.99 c 0,-0.47 0.39,-0.86 0.87,-0.86 0.24,0 0.46,0.1 0.62,0.27 A 0.83,0.83 0 0 1 7.7,5.13 c 0.47,0 0.86,0.4 0.86,0.86 v 1.86 c 0,0.55 -0.44,1 -0.99,1 H 5.34 a 0.99,0.99 0 0 1 -0.99,-1 z"
     id="path4"
     inkscape:connector-curvature="0"
     style="opacity:0.75;fill:#008000" />
</svg>
